svgs/solid/truck-plow.svg

<svg xmlns="http://www.w3.org/2000/svg" viewBox="0 0 640 512"><!--! Font Awesome Pro 6.2.0 by @fontawesome - https://fontawesome.com License - https://fontawesome.com/license (Commercial License) Copyright 2022 Fonticons, Inc. --><path d="M192 96v96H327.5L269.9 96H192zm-64 96V80c0-26.5 21.5-48 48-48h93.9c22.5 0 43.3 11.8 54.9 31.1L402.1 192H448c17.7 0 32 14.3 32 32v64h32V176c0-7.3 2.5-14.3 7-20l64-80c11-13.8 31.2-16 45-5s16 31.2 5 45l-57 71.2V320v36.8L633 428c11 13.8 8.8 33.9-5 45s-33.9 8.8-45-5l-64-80c-4.5-5.7-7-12.7-7-20V352H474.5c3.5 10 5.5 20.8 5.5 32c0 53-43 96-96 96s-96-43-96-96c0-11.2 1.9-22 5.5-32H224c-1.9 0-3.8-.2-5.6-.5c3.7 10.2 5.6 21.1 5.6 32.5c0 53-43 96-96 96s-96-43-96-96c0-11.2 1.9-22 5.5-32H32c-17.7 0-32-14.3-32-32V224c0-17.7 14.3-32 32-32h96zm32 192c0-17.7-14.3-32-32-32s-32 14.3-32 32s14.3 32 32 32s32-14.3 32-32zm256 0c0-17.7-14.3-32-32-32s-32 14.3-32 32s14.3 32 32 32s32-14.3 32-32z"/></svg>

<svg xmlns="http://www.w3.org/2000/svg" viewBox="0 0 640 512"><!--! Font Awesome Pro 6.1.2 by @fontawesome - https://fontawesome.com License - https://fontawesome.com/license (Commercial License) Copyright 2022 Fonticons, Inc. --><path d="M128 192V80C128 53.49 149.5 32 176 32H269.9C292.4 32 313.2 43.8 324.8 63.07L402.1 192H448C465.7 192 480 206.3 480 224V288H512V176C512 168.7 514.5 161.7 519 156L583 76.01C594.1 62.21 614.2 59.97 627.1 71.01C641.8 82.05 644 102.2 632.1 115.1L576 187.2V356.8L632.1 428C644 441.8 641.8 461.9 627.1 472.1C614.2 484 594.1 481.8 583 467.1L519 387.1C514.5 382.3 512 375.3 512 368V352H474.5C478.1 362 480 372.8 480 384C480 437 437 480 384 480C330.1 480 288 437 288 384C288 372.8 289.9 362 293.5 352H224C222.1 352 220.2 351.8 218.4 351.5C222 361.7 224 372.6 224 384C224 437 181 480 128 480C74.98 480 32 437 32 384C32 372.8 33.92 362 37.46 352H32C14.33 352 0 337.7 0 320V224C0 206.3 14.33 192 32 192L128 192zM192 192H327.5L269.9 96H192V192zM128 352C110.3 352 96 366.3 96 384C96 401.7 110.3 416 128 416C145.7 416 160 401.7 160 384C160 366.3 145.7 352 128 352zM384 352C366.3 352 352 366.3 352 384C352 401.7 366.3 416 384 416C401.7 416 416 401.7 416 384C416 366.3 401.7 352 384 352z"/></svg>
